X: 029
T: Sean Berry's (jig)
C: BB
N: 190313
R: jig
Q: 1/8=340
M: 6/8
L: 1/8
K: Ador
G|"Am"ABA ABc | "G"ded "Am"cBA |"G"GAB "C"c2 B | "G"GAB "Am"E2 G |
"Am"ABA ABc|"G"deg "Am"a2 g |"C"ecc "G"dBB |"Am"A3 "Am"A2 :|
e|"Am"a^ga "G"ba=g |"C"ege "G"dBG |"Am"ABc "G"d2 B |"G"dBd "Em"e2 e |
"Am"aee "Em"bee |"G"gfg "Em"edB |"Am"ABc "G"dcB|"Am"A3 "Am"A2 :|
%%%%%%%%%%%%%%%%%%%%%%%%%%%%%%%%%%%%%%%%%%%
